X:1
T:In the Great Beyond
T:In the Great Beyond
T:John Henry Rheem
T:Lewellyn Jackson Coppage, 1893
T:Public Domain Courtesy of the Cyber Hymnal™
T:Public Domain Courtesy of the Cyber Hymnal™
C:John Henry Rheem
Z:Public Domain
Z:Courtesy of the Cyber Hymnal™
%%score ( 1 2 ) ( 3 4 )
L:1/8
Q:1/4=84
M:6/8
K:C
V:1 treble 
V:2 treble 
V:3 bass 
V:4 bass 
V:1
 [EG]/[EG]/ | [Ec]>[Ec][Ec] [Fc][FB][FA] | [FA][EG][EG] [EG]2 [CE] | [EG][DF][DF] [DF][CE][DF] | %4
w: 1.~There’s a|ci- ty of jas- per, of|pearl and of gold, Where|sigh- ing and sad- ness shall|
w: 2.~There’s a|far- a- way ha- ven of|joy and of peace; Se-|cure from the dan- gers of|
w: 3.~There are|loved ones and friends who have|passed on be- fore, Their|la- bors are end- ed, their|
w: 4.~There’s a|crown of re- joic- ing so|glor- ious and bright, For|each who the Mas- ter’s cross|
 [FA][EG][EG] [EG]2 [EG]/[EG]/ | [Ec]>[Ec][Ec] [Fc][FB][FA] | [FA][EG][EG] [EG]2 [EG] | %7
w: ne- ver- more be; Whe- re|glo- ri- ous vi- sions of|rap- ture un- fold, And|
w: break- er and beach; Where the|rage of life’s dark, an- gry|wa- ters shall cease; And|
w: jour- ney com- plete; And their|rest shall be sweet on that|ver- dure clad shore, And|
w: meek- ly shall bear, And its|rare gems of beau- ty our|eyes shall de- light; Oh!|
 [FA][FB][Fc] [Fd]<[Fc][FA] | [EG][Ec][FB] !fermata![Ec]2 ||"^Refrain" [Ec]/[Fd]/ | %10
w: that is the ci- ty I’m|hop- ing to see.||
w: that is the ha- ven I’m|striv- ing to reach.||
w: they are the friends I am|hop- ing to meet.||
w: that is the crown I am|long- ing to wear.||
 [Ge]>[Gd][Ec] [Fd]>[Fc][FA] | [EG] [Ec]4 [Ec] | [Ec]>[Ec][Ec] [^Fe]>[Fd][Fc] | [GB]3- [GB]2 G | %14
w: ||||
w: ||||
w: ||||
w: ||||
 [Ec]>[Ec][Ec] [Ec][FB][Gc] | [Ad][Fc][FA] [FA][EG][EG] | [FA]>[FB][Fc] [Fd]>[FA][FB] | %17
w: |||
w: |||
w: |||
w: |||
 [Ec]3- [Ec]2 |] %18
w: |
w: |
w: |
w: |
V:2
 x | x6 | x6 | x6 | x6 | x6 | x6 | x6 | x5 || x | x6 | x6 | x6 | x5 G | x6 | x6 | x6 | x5 |] %18
V:3
 [C,C]/[C,C]/ | [C,G,]>[C,G,][C,G,] [C,A,][C,B,][C,C] | [C,C][C,C][C,C] [C,C]2 [C,G,] | %3
w: ~ ~|~ ~ ~ ~ ~ ~|~ ~ ~ ~ ~|
 [G,,G,][G,,G,][G,,G,] [G,,G,][G,,G,][G,,B,] | [C,C][C,C][C,C] [C,C]2 [C,C]/[C,C]/ | %5
w: ~ ~ ~ ~ ~ ~|~ ~ ~ ~ ~ ~|
 [C,G,]>[C,G,][C,G,] [C,A,][C,B,][C,C] | [C,C][C,C][C,C] [C,C]2 [C,C] | %7
w: ~ ~ ~ ~ ~ ~|~ ~ ~ ~ ~|
 [F,C][F,B,][F,A,] [F,A,]<[F,A,][F,C] | [G,C]G,[G,,G,] !fermata![C,G,]2 || [C,G,]/[C,G,]/ | %10
w: ~ ~ ~ ~ ~ ~|~ ~ ~ ~|Oh, that|
 [C,C]>[C,C][C,C] [F,A,]>[F,A,][F,C] | [C,C] [C,G,]4 [C,G,] | [A,C]>[A,C][A,C] [D,C]>[D,C][D,D] | %13
w: beau- ti- ful, beau- ti- ful|ci- ty… The|home that’s pre- pared for the|
 [G,D]3- [G,D]2 G, | [C,G,]>[C,G,][C,G,] [C,G,][D,G,][E,G,] | F,[F,A,][F,C] [C,C][C,C][C,C] | %16
w: blest; * Where|those who are faith- ful in|serv- ing the Mas- ter, Shall|
 [F,C]>[F,B,][F,A,] [F,A,]>[F,A,]G, | [C,G,]3- [C,G,]2 |] %18
w: thro’ all e- ter- ni- ty|rest. *|
V:4
 x | x6 | x6 | x6 | x6 | x6 | x6 | x6 | x G, x3 || x | x6 | x6 | x6 | x5 G, | x6 | F, x5 | x5 G, | %17
 x5 |] %18

